!!!COM: Beethoven
!!!OTL: 24 Variationen uber Venni Amore von V. Righini
!!!Variation: Theme b
**function	**harm	**kern	**kern
*	*	*clefF4	*clefG2
*	*	*k[f#c#]	*k[f#c#]
*M2/4	*M2/4	*M2/4	*M2/4
*D:	*D:	*D:	*D:
=1	=1	=1	=1
4T	4I	8D	8a 8ff#
4T	4I	8r	8r
4T	4V7	8AA	8g 8ee
4T	4V7	8r	8r
=2	=2	=2	=2
2T	2vi	4BB	4f# 4dd
2T	2vi	4r	8.r
2T	2vi	4r	16cc#
=3	=3	=3	=3
2T	2IV	8GG	8g 8b
2T	2IV	8r	8r
2T	2IV	8BB	8g 8b
2T	2IV	8r	8r
=4	=4	=4	=4
2T	2I	8D	8f# 8a
2T	2I	8r	8r
2T	2I	4r	4r
=5	=5	=5	=5
2T	2I	8D 8A	8d 8f#
2T	2I	8r	8r
2T	2I	(4D [4A	(4d 4f#
=6	=6	=6	=6
2T	2V7b	8C#) 8A]	8e) 8g
2T	2V7b	8r	8r
2T	2V7b	(4C# [4A	(4e 4g
=7	=7	=7	=7
2T	2I	8D) 8A]	8d) 8f#
2T	2I	8r	8r
2T	2I	4D 4A	4d 4f#
=8	=8	=8	=8
2D	2V	4AA 4A	4c# 4e
2D	2V	4r	4r
=9	=9	=9	=9
2D	2V7	2AA 2G	2c#
2D	2V7	2AA 2G	2c#
2D	2V7	2AA 2G	2c#
2D	2V7	2AA 2G	2c#
=10	=10	=10	=10
2D	2Ic	2AA 2F#	2d
2D	2Ic	2AA 2F#	2d
2D	2Ic	2AA 2F#	2d
2D	2Ic	2AA 2F#	2d
=11	=11	=11	=11
2D	2V7	2AA 2C# 2G	8ee
2D	2V7	2AA 2C# 2G	8r
2D	2V7	2AA 2C# 2G	8a
2D	2V7	2AA 2C# 2G	8r
=12	=12	=12	=12
2D	2Ic	2AA 2D 2F#	8dd
2D	2Ic	2AA 2D 2F#	8r
2D	2Ic	2AA 2D 2F#	8d
2D	2Ic	2AA 2D 2F#	8r
=13	=13	=13	=13
2D	2V7	2AA 2G	2c#
2D	2V7	2AA 2G	2c#
2D	2V7	2AA 2G	2c#
2D	2V7	2AA 2G	2c#
=14	=14	=14	=14
2D	2Cc	2AA 2F#	2d
2D	2Cc	2AA 2F#	2d
2D	2Cc	2AA 2F#	2d
2D	2Cc	2AA 2F#	2d
=15	=15	=15	=15
2D	2V7	2AA	4A
2D	2V7	2AA	4G
2D	2V7	2AA	4G
2D	2V7	2AA	4G
2D	2V7	2AA	4G
=16	=16	=16	=16
2T	2I	4D	4F#
2T	2I	4r	4r
